assets/images/clients/DODO.svg

<svg width="300" height="120" viewBox="0 0 300 120" fill="none" xmlns="http://www.w3.org/2000/svg">
<path d="M111.954 64.2715H99.2115C97.748 64.2715 96.9561 65.2069 96.9561 66.3423V79.8985C96.9561 81.2316 97.9921 81.9966 99.2733 81.9966C100.523 81.9966 101.529 81.2306 101.529 79.8985V68.3838H109.668V79.8976C109.668 81.2306 110.674 81.9956 111.955 81.9956C113.205 81.9956 114.242 81.2014 114.242 79.8684V66.3413C114.241 65.2069 113.419 64.2715 111.954 64.2715Z" fill="#949494"/>
<path d="M134.151 64.2715H133.968C132.627 64.2715 131.742 64.8952 130.797 66.1434L123.358 75.9557V66.3695C123.358 65.0364 122.444 64.2715 121.194 64.2715C119.914 64.2715 118.969 65.0374 118.969 66.3695V79.4434C118.969 80.8614 119.944 81.8261 121.499 81.8261H121.712C123.146 81.8261 124.06 81.1458 124.944 79.954L132.383 70.1418V79.7271C132.383 81.0601 133.298 81.8261 134.578 81.8261C135.828 81.8261 136.773 81.0601 136.773 79.7271V66.6532C136.773 65.1787 135.828 64.2715 134.151 64.2715Z" fill="#949494"/>
<path d="M159.578 77.7134H158.419V66.1996C158.419 64.8666 157.383 64.1006 156.102 64.1006C154.852 64.1006 153.845 64.8666 153.845 66.1996V77.7134H145.919V66.1996C145.919 64.8666 144.944 64.1006 143.632 64.1006C142.352 64.1006 141.347 64.8666 141.347 66.1996V79.7559C141.347 80.8903 142.17 81.8257 143.602 81.8257H157.321V83.6978C157.321 85.0309 158.297 85.7959 159.546 85.7959C160.827 85.7959 161.802 85.03 161.802 83.6978V79.8124C161.803 78.4219 160.92 77.7134 159.578 77.7134Z" fill="#949494"/>
<path d="M182.471 77.7134H181.313V66.1996C181.313 64.8666 180.277 64.1006 178.995 64.1006C177.746 64.1006 176.739 64.8666 176.739 66.1996V77.7134H168.813V66.1996C168.813 64.8666 167.838 64.1006 166.526 64.1006C165.246 64.1006 164.24 64.8666 164.24 66.1996V79.7559C164.24 80.8903 165.064 81.8257 166.496 81.8257H180.215V83.6978C180.215 85.0309 181.19 85.7959 182.44 85.7959C183.72 85.7959 184.695 85.03 184.695 83.6978V79.8124C184.697 78.4219 183.812 77.7134 182.471 77.7134Z" fill="#949494"/>
<path d="M204.757 78.8481L198.538 66.2566C197.836 64.8668 196.861 64.2715 195.459 64.2715H195.215C193.751 64.2715 192.776 64.8668 192.075 66.2566L185.856 78.8481C185.246 80.0954 185.672 81.2014 186.892 81.6274C187.989 82.0248 189.087 81.7979 189.696 80.607L191.099 77.856C192.349 78.2536 193.903 78.4514 195.367 78.4514C196.921 78.4514 198.294 78.2526 199.451 77.856L200.793 80.5787C201.373 81.7695 202.562 81.9966 203.628 81.6274C204.848 81.2014 205.336 80.0389 204.757 78.8481ZM195.367 74.6791C194.422 74.6791 193.415 74.5661 192.653 74.3672L195.306 68.8662L197.958 74.3672C197.226 74.5661 196.312 74.6791 195.367 74.6791Z" fill="#949494"/>
<path d="M117.442 49.5887H116.283V38.2163C116.283 37.082 115.46 36.1465 114.028 36.1465H103.571C102.351 36.1465 101.528 36.9124 101.528 38.2446V40.9956C101.528 42.9807 101.497 44.5117 101.132 46.1565C100.766 47.7733 100.308 48.7653 99.6378 49.5879H99.1203C97.6569 49.5879 96.9561 50.4385 96.9561 51.6586V55.5723C96.9561 56.9053 97.9313 57.6703 99.1822 57.6703C100.462 57.6703 101.438 56.9043 101.438 55.5723V53.7002H115.187V55.5723C115.187 56.9053 116.163 57.6703 117.412 57.6703C118.692 57.6703 119.668 56.9043 119.668 55.5723V51.6586C119.667 50.4395 118.966 49.5887 117.442 49.5887ZM111.71 49.5887H104.302C104.76 48.6815 105.125 47.8591 105.43 46.6116C105.735 45.3068 105.857 44.0019 105.888 42.3005L105.918 40.2589H111.71V49.5887Z" fill="#949494"/>
<path d="M130.4 36.0039C124.943 36.0039 120.736 39.8327 120.736 44.9372C120.736 50.0981 124.943 53.8704 130.4 53.8704C135.857 53.8704 140.064 49.9569 140.064 44.8807C140.064 39.7762 135.857 36.0039 130.4 36.0039ZM130.4 49.872C127.413 49.872 125.248 47.7729 125.248 44.9089C125.248 42.1014 127.413 40.0023 130.4 40.0023C133.418 40.0023 135.552 42.1004 135.552 44.9089C135.552 47.7729 133.51 49.872 130.4 49.872Z" fill="#949494"/>
<path d="M173.844 36.0039C168.387 36.0039 164.18 39.8327 164.18 44.9372C164.18 50.0981 168.387 53.8704 173.844 53.8704C179.301 53.8704 183.508 49.9569 183.508 44.8807C183.508 39.7762 179.301 36.0039 173.844 36.0039ZM173.844 49.872C170.856 49.872 168.692 47.7729 168.692 44.9089C168.692 42.1014 170.857 40.0023 173.844 40.0023C176.862 40.0023 178.996 42.1004 178.996 44.9089C178.996 47.7729 176.953 49.872 173.844 49.872Z" fill="#949494"/>
<path d="M161.038 49.5887H159.88V38.2163C159.88 37.082 159.056 36.1465 157.624 36.1465H147.167C145.948 36.1465 145.124 36.9124 145.124 38.2446V40.9956C145.124 42.9807 145.094 44.5117 144.728 46.1565C144.363 47.7733 143.905 48.7653 143.235 49.5879H142.716C141.253 49.5879 140.552 50.4385 140.552 51.6586V55.5723C140.552 56.9053 141.527 57.6703 142.778 57.6703C144.058 57.6703 145.033 56.9043 145.033 55.5723V53.7002H158.783V55.5723C158.783 56.9053 159.758 57.6703 161.008 57.6703C162.288 57.6703 163.263 56.9043 163.263 55.5723V51.6586C163.264 50.4395 162.563 49.5887 161.038 49.5887ZM155.307 49.5887H147.899C148.356 48.6815 148.722 47.8591 149.027 46.6116C149.332 45.3068 149.454 44.0019 149.484 42.3005L149.515 40.2589H155.307V49.5887Z" fill="#949494"/>
</svg>

<svg width="300" height="120" viewBox="0 0 300 120" fill="none" xmlns="http://www.w3.org/2000/svg"><path d="M111.954 64.272H99.212c-1.464 0-2.256.935-2.256 2.07v13.556c0 1.334 1.036 2.099 2.317 2.099 1.25 0 2.256-.766 2.256-2.099V68.385h8.139v11.514c0 1.333 1.006 2.098 2.287 2.098 1.25 0 2.287-.795 2.287-2.128V66.341c-.001-1.134-.823-2.07-2.288-2.07Zm22.197 0h-.183c-1.341 0-2.226.623-3.171 1.871l-7.439 9.813v-9.587c0-1.333-.914-2.097-2.164-2.097-1.28 0-2.225.765-2.225 2.097v13.074c0 1.418.975 2.383 2.53 2.383h.213c1.434 0 2.348-.68 3.232-1.872l7.439-9.812v9.585c0 1.333.915 2.1 2.195 2.1 1.25 0 2.195-.767 2.195-2.1V66.653c0-1.474-.945-2.382-2.622-2.382Zm25.427 13.441h-1.159V66.2c0-1.333-1.036-2.1-2.317-2.1-1.25 0-2.257.767-2.257 2.1v11.513h-7.926V66.2c0-1.333-.975-2.1-2.287-2.1-1.28 0-2.285.767-2.285 2.1v13.556c0 1.134.823 2.07 2.255 2.07h13.719v1.872c0 1.333.976 2.098 2.225 2.098 1.281 0 2.256-.766 2.256-2.098v-3.886c.001-1.39-.882-2.099-2.224-2.099Zm22.893 0h-1.158V66.2c0-1.333-1.036-2.1-2.318-2.1-1.249 0-2.256.767-2.256 2.1v11.513h-7.926V66.2c0-1.333-.975-2.1-2.287-2.1-1.28 0-2.286.767-2.286 2.1v13.556c0 1.134.824 2.07 2.256 2.07h13.719v1.872c0 1.333.975 2.098 2.225 2.098 1.28 0 2.255-.766 2.255-2.098v-3.886c.002-1.39-.883-2.099-2.224-2.099Zm22.286 1.135-6.219-12.591c-.702-1.39-1.677-1.986-3.079-1.986h-.244c-1.464 0-2.439.596-3.14 1.986l-6.219 12.591c-.61 1.247-.184 2.353 1.036 2.78 1.097.397 2.195.17 2.804-1.021l1.403-2.751c1.25.398 2.804.595 4.268.595 1.554 0 2.927-.198 4.084-.595l1.342 2.723c.58 1.19 1.769 1.418 2.835 1.048 1.22-.426 1.708-1.588 1.129-2.779Zm-9.39-4.169c-.945 0-1.952-.113-2.714-.312l2.653-5.5 2.652 5.5c-.732.2-1.646.312-2.591.312Zm-77.925-25.09h-1.159V38.216c0-1.134-.823-2.07-2.255-2.07h-10.457c-1.22 0-2.043.766-2.043 2.099v2.75c0 1.986-.031 3.517-.396 5.162-.366 1.616-.824 2.608-1.494 3.43h-.518c-1.463 0-2.164.851-2.164 2.072v3.913c0 1.333.975 2.098 2.226 2.098 1.28 0 2.256-.766 2.256-2.098V53.7h13.749v1.872c0 1.333.976 2.098 2.225 2.098 1.28 0 2.256-.766 2.256-2.098V51.66c-.001-1.22-.702-2.07-2.226-2.07Zm-5.732 0h-7.408c.458-.907.823-1.73 1.128-2.977.305-1.305.427-2.61.458-4.312l.03-2.041h5.792v9.33Zm18.69-13.585c-5.457 0-9.664 3.829-9.664 8.933 0 5.161 4.207 8.933 9.664 8.933s9.664-3.913 9.664-8.99c0-5.104-4.207-8.876-9.664-8.876Zm0 13.868c-2.987 0-5.152-2.1-5.152-4.963 0-2.808 2.165-4.907 5.152-4.907 3.018 0 5.152 2.098 5.152 4.907 0 2.864-2.042 4.963-5.152 4.963Zm43.444-13.868c-5.457 0-9.664 3.829-9.664 8.933 0 5.161 4.207 8.933 9.664 8.933s9.664-3.913 9.664-8.99c0-5.104-4.207-8.876-9.664-8.876Zm0 13.868c-2.988 0-5.152-2.1-5.152-4.963 0-2.808 2.165-4.907 5.152-4.907 3.018 0 5.152 2.098 5.152 4.907 0 2.864-2.043 4.963-5.152 4.963Zm-12.806-.283h-1.158V38.216c0-1.134-.824-2.07-2.256-2.07h-10.457c-1.219 0-2.043.766-2.043 2.099v2.75c0 1.986-.03 3.517-.396 5.162-.365 1.616-.823 2.608-1.493 3.43h-.519c-1.463 0-2.164.851-2.164 2.072v3.913c0 1.333.975 2.098 2.226 2.098 1.28 0 2.255-.766 2.255-2.098V53.7h13.75v1.872c0 1.333.975 2.098 2.225 2.098 1.28 0 2.255-.766 2.255-2.098V51.66c.001-1.22-.7-2.07-2.225-2.07Zm-5.731 0h-7.408c.457-.907.823-1.73 1.128-2.977.305-1.305.427-2.61.457-4.312l.031-2.041h5.792v9.33Z" fill="#949494"/></svg>
